X: 241
T: Jesus Wants All Of His Children
%%combinevoices 1
C: Words: verses 1-5 Mrs. James W. Wood, 1909. verses 6-7 Brian J. Dumont, 2008.
C: Music and Setting: 'Blessed Are They' Mrs. James W. Wood, from "Service in Song", Standard Pub. Co., 1909.
C: copyright: public domain.  This score is a part of the Open Hymnal Project, 2006 Revision. 
C: verses 6-7 released into the public domain by the author on 17 Dec 2008.
S: Music source: "Children's Hymnal and Service Book", 1929 Hymn 116.
M: 4/4 % time signature
L: 1/4 % default length
%%staves S1 | S2 
V: S1 clef=treble 
%%MIDI beat 127 125 110 1
V: S2 clef=bass 
%%MIDI beat 127 125 110 1
K: D % key signature
%
%%MIDI program 1 0 % Piano 1
%%MIDI program 2 0 % Piano 1
%
% 1
[V: S1] [Q:1/4=100] [DF] [DF] [CF] [CE] | D [DF] .(,.([DB] [DA])) & D x3 | [Fd] [Fd] [FA] [DF] | [C3E3] 
w: 1.~Je- sus wants all of His child- ren to be good and true; 
w: 2.~Je- sus was so meek and low- ly, As a lit- tle child. 
w: 3.~Je- sus wants us to be lov- ing, help- ing when we may. 
w: 4.~"Bless- ed are the pure in heart,"_ thus the Sav- ior taught. 
w: 5.~When we find our friends are an- gry, we will to them say, 
[V: S2]  A, A, [G,A,] [G,A,] & A, A, x2 | [F,A,] [F,A,] .(,.(G, [F,A,])) & x2 G, x | [A,D] [A,D] A, A, & x2 A, A, | [G,3A,3]
% 5
[V: S1]  z | [CE] [DF] [CG] [DA] | [DB] [Ec] [Fd] [DF] | !sintro![B,E] [B,G] [DF] [CE] | [A,3D3] z !eintro!|]
w: He will help if we but ask Him, help us glad- ly too. 
w: We will try to be like Je- sus, gen- tle, pa- tient, mild.  
w: We will try to be kind- heart- ed, mer- ci- ful each day. 
w: Clean in mind, in soul, in bo- dy, pure in ev- ery thought. 
w: "Je- sus wants you to be lov- ing, each and ev- ery day." 
[V: S2]  z | [G,A,] [F,A,] [E,A,] [F,A,] | G, E, [F,D] B, & G, E, x B, | G, E, A, [A,,G,] & G, E, A, x | [D,3F,3] z |]
% 10
W: 6.When I know that I have done wrong, to Jesus I flee.
W: He has paid for all transgressions, He has paid for me!
W:
W: 7.Jesus knew that we would fail Him so He came to be
W: Life to all the poor and lost ones, life eternally!

%%newpage
%%%%%%%%%%%%%%%%%%%%%%%%%%%%%%%%%%%%
% 
% This file is a part of the Open Hymnal Project to create a freely 
% distributable, downloadable database of Christian hymns, spiritual 
% songs, and prelude/postlude music.  This music is to be distributed 
% as complete scores (words and music), using all accompaniment parts, 
% in formats that are easily accessible on most computer OS's and which
% can be freely modified by anyone.  The current format of choice is the 
% "ABC Plus" format, favored by folk music distributors on the internet.
% All scores will also be converted into pdf, MIDI, and mp3 formats.
% Some advanced features of ABC Plus are used, and for accurate 
% translation to a printed score, please consider using "abcm2ps" 
% version 4.10 or later.  I am doing my best to create a final product
% that is "Hymnal-quality", and could feasibly be used as the basis for
% a printed church hymnal.
%
% The maintainer of the Open Hymnal Project is Brian J. Dumont (brian 
% dot j dot dumont at gmail dot com).  I have gone through serious efforts 
% to make sure that no copyright mistakes make it into this database.
% If I am in error, please inform me as soon as possible.
%
% This entire effort has used only free software, and I am indebted to 
% the efforts of many other individuals, including the authors of
% the various ABC and ABC Plus software.  Undoubtedly, I am also indebted 
% to all of the great Christians who wrote these hymns.
%
% This database comes with no guarantees whatsoever.
%
% I would love to get email from anyone who uses the Open Hymnal, and
% I will take requests for hymns to add.  My decision of whether to 
% add a hymn will be based on these criteria (in the following order):
% 1) It must be in the public domain or freely distributable
% 2) It must be a Christian piece
% 3) Whether I have access to a printed copy of the music (surprisingly,
%    a MIDI file is usually a terrible source)
% 4) Whether I like the hymn :)
%
% If you would like to contribute to the Open Hymnal Project, please 
% send an email to me, I would love the help!  PLEASE EMAIL ME IF YOU 
% FIND ANY MISTAKES, no matter how small.  I want to ensure that every 
% slur, stem, hyphenation, and punctuation mark is correct; and I'm sure 
% that there must be mistakes right now.
%
% Open Hymnal Project, 2010 Edition
%
%%%%%%%%%%%%%%%%%%%%%%%%%%%%%%%%%%%%

% PAGE LAYOUT
%
%%pagewidth	21.6000cm
%%pageheight	27.9000cm
%%scale		0.750000
%%staffsep	1.60000cm
%%exprabove	false
%%measurebox	false
%%header "242		NEW OBEDIENCE"
%%footer Mt 6:10, Ps 40:8, Jn 6:40, Acts 22:14-16		6 6 6 6 6 6 6 6
%OHSCRIP Mt 6:10, Ps 40:8, Jn 6:40, Acts 22:14-16
%OHTOPICS {Assurance}, {Bread (of Life/Daily Bread)}, {Christian Life}, {Commitment}, {Faith}, {Following Jesus, In Faith}, {God, Care of}, {Guidance}, {Jesus}, {Obedience}, {Patience}
%OHCATEGORY NEW OBEDIENCE
%OHMETRICAL 6 6 6 6 6 6 6 6
%OHCOMPLEXITY 2
%OHCOMPOSER von Weber, Carl Maria Friedrich Ernst (1786-1826)
%OHARRANGER unknown
%OHAUTHOR Schmolck, Benjamin (1672-1737)
%OHTRANSLATOR Borthwick, Jane Laurie (1813-1897)
%%postscript /st { moveto -8 0 rmoveto 0 8 rlineto 4 0 rlineto stroke } def
%%postscript /nd { moveto -8 0 rmoveto 0 8 rlineto -4 0 rlineto stroke } def
%%deco sintro 6 st 6 0 0 
%%deco eintro 6 nd 6 0 0 

